X: 23378
T: Leitrim, The
R: reel
M: 4/4
K: Edorian
|:eBBz B2zB|AEFA dcdf|eBBz e2dB|1 AFDF FEE2:|2 AFDF FEED||
E2zg gffe|defa afed|Bdef gfgb|afde feed||
Be (3eee eagf|defg afga|aggf gfed|defg gfdf||

